actions/16/mail-unread-multiple.svg

<?xml version="1.0" encoding="UTF-8" standalone="no"?>
<svg
   xmlns:dc="http://purl.org/dc/elements/1.1/"
   xmlns:cc="http://creativecommons.org/ns#"
   xmlns:rdf="http://www.w3.org/1999/02/22-rdf-syntax-ns#"
   xmlns:svg="http://www.w3.org/2000/svg"
   xmlns="http://www.w3.org/2000/svg"
   xmlns:sodipodi="http://sodipodi.sourceforge.net/DTD/sodipodi-0.dtd"
   xmlns:inkscape="http://www.inkscape.org/namespaces/inkscape"
   height="16"
   width="16"
   version="1.1"
   id="svg6"
   sodipodi:docname="mail-unread-multiple.svg"
   inkscape:version="0.92.2pre0 (973e216, 2017-07-25)">
  <metadata
     id="metadata12">
    <rdf:RDF>
      <cc:Work
         rdf:about="">
        <dc:format>image/svg+xml</dc:format>
        <dc:type
           rdf:resource="http://purl.org/dc/dcmitype/StillImage" />
      </cc:Work>
    </rdf:RDF>
  </metadata>
  <defs
     id="defs10" />
  <sodipodi:namedview
     pagecolor="#ffffff"
     bordercolor="#808080"
     borderopacity="1"
     objecttolerance="10"
     gridtolerance="10"
     guidetolerance="10"
     inkscape:pageopacity="0"
     inkscape:pageshadow="2"
     inkscape:window-width="1279"
     inkscape:window-height="727"
     id="namedview8"
     showgrid="false"
     inkscape:zoom="14.75"
     inkscape:cx="-3.5254237"
     inkscape:cy="11.136388"
     inkscape:window-x="98"
     inkscape:window-y="193"
     inkscape:window-maximized="0"
     inkscape:current-layer="svg6" />
  <g
     transform="translate(-273 235)"
     id="g4"
     style="fill:#808080;fill-opacity:1">
    <path
       d="M275-233c-.438 0-.786.039-1.078.148-.292.11-.526.31-.664.561-.277.502-.248 1.114-.258 1.953V-223.662c.01.839-.019 1.451.258 1.953.138.251.372.45.664.56.292.11.64.149 1.078.149h12c.439 0 .786-.039 1.078-.148.293-.11.528-.31.666-.561.277-.502.246-1.114.256-1.953V-230.338c-.01-.839.021-1.451-.256-1.953a1.258 1.258 0 0 0-.666-.56c-.292-.11-.64-.149-1.078-.149zm0 1h12c.38 0 .606.039.727.084.083.031.127.08.142.107.095.172.12.615.131 1.473V-223.662c-.01.855-.036 1.299-.13 1.47a.27.27 0 0 1-.143.108c-.121.045-.347.084-.727.084h-12c-.38 0-.606-.039-.726-.084a.257.257 0 0 1-.141-.107c-.096-.174-.123-.617-.133-1.471V-230.336c.01-.856.037-1.299.133-1.473a.257.257 0 0 1 .14-.107c.121-.045.348-.084.727-.084zm.537 1.578l-.285.438 5.873 4.22L287-230l-.285-.422-5.59 3.373z"
       fill="gray"
       font-family="Ubuntu"
       font-size="15"
       font-weight="400"
       letter-spacing="0"
       style="line-height:125%;-inkscape-font-specification:Ubuntu;text-align:center;fill:#808080;fill-opacity:1"
       text-anchor="middle"
       word-spacing="0"
       id="path2" />
  </g>
  <path
     inkscape:connector-curvature="0"
     id="path4145"
     d="m 9.87,6.8080006 c -0.554001,0 -1.000001,0.446 -1.000001,0.9999995 V 12.808 c 0,0.554 0.446,1 1.000001,1 h 5 c 0.554,0 1,-0.446 1,-1 V 7.8080001 c 0,-0.5539995 -0.446,-0.9999995 -1,-0.9999995 z m 0,0.9999995 h 1 V 8.808 h 1 v 1 h 1 v -1 h 1 V 7.8080001 h 1 V 12.808 h -1 v -3 h -1 v 1 h -1 v -1 h -1 v 3 h -1 z"
     style="opacity:1;fill:#808080;fill-opacity:1" />
</svg>

<svg xmlns="http://www.w3.org/2000/svg" width="16" height="16" version="1.1">
 <g style="fill:#808080" transform="translate(-273,235)">
  <path style="fill:#808080" d="M 275,-233 C 274.56,-233 274.21,-232.96 273.92,-232.85 273.63,-232.74 273.4,-232.54 273.26,-232.29 272.98,-231.79 273.01,-231.18 273,-230.34 V -223.66 C 273.01,-222.82 272.98,-222.21 273.26,-221.71 273.4,-221.46 273.63,-221.26 273.92,-221.15 274.21,-221.04 274.56,-221 275,-221 H 287 C 287.44,-221 287.79,-221.04 288.08,-221.15 288.37,-221.26 288.61,-221.46 288.74,-221.71 289.02,-222.21 288.99,-222.82 289,-223.66 V -230.34 C 288.99,-231.18 289.02,-231.79 288.74,-232.29 A 1.258,1.258 0 0 0 288.08,-232.85 C 287.79,-232.96 287.44,-233 287,-233 Z M 275,-232 H 287 C 287.38,-232 287.61,-231.96 287.73,-231.92 287.81,-231.88 287.85,-231.84 287.87,-231.81 287.96,-231.64 287.99,-231.19 288,-230.34 V -223.66 C 287.99,-222.81 287.96,-222.36 287.87,-222.19 A 0.27,0.27 0 0 1 287.73,-222.08 C 287.61,-222.04 287.38,-222 287,-222 H 275 C 274.62,-222 274.39,-222.04 274.27,-222.08 A 0.257,0.257 0 0 1 274.13,-222.19 C 274.04,-222.37 274.01,-222.81 274,-223.66 V -230.34 C 274.01,-231.19 274.04,-231.64 274.13,-231.81 A 0.257,0.257 0 0 1 274.27,-231.92 C 274.39,-231.96 274.62,-232 275,-232 Z M 275.54,-230.42 275.25,-229.98 281.12,-225.76 287,-230 286.71,-230.42 281.12,-227.05 Z"/>
 </g>
 <path style="fill:#808080" d="M 9.87,6.808 C 9.316,6.808 8.87,7.254 8.87,7.808 V 12.808 C 8.87,13.362 9.316,13.808 9.87,13.808 H 14.87 C 15.424,13.808 15.87,13.362 15.87,12.808 V 7.808 C 15.87,7.254 15.424,6.808 14.87,6.808 Z M 9.87,7.808 H 10.87 V 8.808 H 11.87 V 9.808 H 12.87 V 8.808 H 13.87 V 7.808 H 14.87 V 12.808 H 13.87 V 9.808 H 12.87 V 10.808 H 11.87 V 9.808 H 10.87 V 12.808 H 9.87 Z"/>
</svg>
